resources/haticons/SVG/compare_arrows.svg

<!-- Generated by IcoMoon.io -->
<svg version="1.1" xmlns="http://www.w3.org/2000/svg" width="24" height="24" viewBox="0 0 24 24">
<title>compare_arrows</title>
<path d="M15 12.984l-3.984-3.984 3.984-3.984v3h6.984v1.969h-6.984v3zM9 14.016v-3l3.984 3.984-3.984 3.984v-3h-6.984v-1.969h6.984z"></path>
</svg>

<svg xmlns="http://www.w3.org/2000/svg" width="24" height="24"><path d="M15 12.984L11.016 9 15 5.016v3h6.984v1.969H15v3zm-6 1.032v-3L12.984 15 9 18.984v-3H2.016v-1.969H9z"/></svg>
